X:815
L:1/8
Q:3/8=110
M:6/8
K:D
 d2 D d2 D | BAG FED | FGA Bcd | efd{d} cBA | d2 D d2 D | BAG FED | FGA Bcd | egf{f} e3 |:

